{
 "type": "map",
 "version": "1.10",
 "tiledversion": "1.11.0",
 "orientation": "orthogonal",
 "renderorder": "right-down",
 "width": 28,
 "height": 28,
 "tilewidth": 32,
 "tileheight": 32,
 "infinite": false,
 "nextlayerid": 5,
 "nextobjectid": 62,
 "compressionlevel": -1,
 "properties": [
  {
   "name": "nome",
   "type": "string",
   "value": "Aldeia"
  },
  {
   "name": "ambiente",
   "type": "string",
   "value": "aldeia"
  },
  {
   "name": "floresta_externa",
   "type": "bool",
   "value": true
  },
  {
   "name": "semente",
   "type": "int",
   "value": 11
  }
 ],
 "tilesets": [
  {
   "firstgid": 1,
   "source": "tilesets/terreno.tsj"
  }
 ],
 "layers": [
  {
   "id": 1,
   "name": "terreno",
   "type": "tilelayer",
   "width": 28,
   "height": 28,
   "x": 0,
   "y": 0,
   "opacity": 1,
   "visible": true,
   "data": [
    6,
    6,
    6,
    6,
    6,
    6,
    6,
    6,
    6,
    6,
    6,
    6,
    6,
    6,
    6,
    6,
    6,
    6,
    6,
    6,
    6,
    6,
    6,
    6,
    6,
    6,
    6,
    6,
    6,
    6,
    6,
    6,
    6,
    6,
    6,
    6,
    6,
    6,
    6,
    6,
    6,
    6,
    6,
    6,
    6,
    6,
    6,
    6,
    6,
    6,
    6,
    6,
    6,
    6,
    6,
    6,
    6,
    6,
    1,
    1,
    1,
    1,
    1,
    1,
    4,
    4,
    4,
    4,
    4,
    4,
    4,
    4,
    4,
    4,
    4,
    4,
    1,
    1,
    1,
    1,
    1,
    1,
    6,
    6,
    6,
    6,
    1,
    1,
    1,
    1,
    1,
    1,
    4,
    4,
    4,
    4,
    4,
    4,
    4,
    4,
    4,
    4,
    4,
    4,
    1,
    1,
    1,
    1,
    1,
    1,
    6,
    6,
    6,
    6,
    1,
    1,
    1,
    1,
    1,
    1,
    4,
    4,
    4,
    4,
    4,
    4,
    4,
    4,
    4,
    4,
    4,
    4,
    1,
    1,
    1,
    1,
    1,
    1,
    6,
    6,
    6,
    6,
    1,
    1,
    1,
    1,
    1,
    1,
    4,
    4,
    4,
    4,
    4,
    4,
    4,
    4,
    4,
    4,
    4,
    4,
    1,
    1,
    1,
    1,
    1,
    1,
    6,
    6,
    6,
    6,
    1,
    1,
    1,
    1,
    1,
    1,
    4,
    4,
    4,
    4,
    4,
    4,
    4,
    4,
    4,
    4,
    4,
    4,
    1,
    1,
    1,
    1,
    1,
    1,
    6,
    6,
    6,
    6,
    1,
    1,
    1,
    1,
    1,
    1,
    4,
    4,
    4,
    4,
    4,
    4,
    4,
    4,
    4,
    4,
    4,
    4,
    1,
    1,
    1,
    1,
    1,
    1,
    6,
    6,
    6,
    6,
    1,
    1,
    1,
    1,
    1,
    1,
    4,
    4,
    4,
    4,
    4,
    4,
    4,
    4,
    4,
    4,
    4,
    4,
    1,
    1,
    1,
    1,
    1,
    1,
    6,
    6,
    6,
    6,
    1,
    1,
    1,
    1,
    1,
    1,
    1,
    1,
    1,
    1,
    1,
    3,
    3,
    1,
    1,
    1,
    1,
    1,
    1,
    1,
    1,
    1,
    1,
    1,
    6,
    6,
    6,
    6,
    1,
    1,
    1,
    1,
    1,
    1,
    1,
    1,
    1,
    1,
    1,
    3,
    3,
    1,
    1,
    1,
    1,
    1,
    1,
    1,
    1,
    1,
    1,
    1,
    6,
    6,
    6,
    6,
    1,
    1,
    1,
    1,
    1,
    1,
    2,
    2,
    1,
    1,
    2,
    3,
    3,
    2,
    1,
    1,
    2,
    2,
    1,
    1,
    1,
    1,
    1,
    1,
    6,
    6,
    6,
    6,
    1,
    1,
    1,
    1,
    1,
    1,
    1,
    2,
    2,
    2,
    2,
    3,
    3,
    2,
    2,
    2,
    2,
    1,
    1,
    1,
    1,
    1,
    1,
    1,
    6,
    6,
    6,
    6,
    1,
    1,
    1,
    1,
    1,
    1,
    1,
    1,
    2,
    2,
    3,
    3,
    3,
    3,
    2,
    2,
    1,
    1,
    1,
    1,
    1,
    1,
    1,
    1,
    6,
    6,
    6,
    6,
    1,
    1,
    1,
    1,
    1,
    1,
    1,
    1,
    2,
    3,
    3,
    3,
    3,
    3,
    3,
    2,
    2,
    2,
    2,
    2,
    2,
    2,
    2,
    2,
    2,
    2,
    6,
    6,
    1,
    1,
    1,
    1,
    1,
    1,
    1,
    1,
    2,
    3,
    3,
    3,
    3,
    3,
    3,
    2,
    2,
    2,
    2,
    2,
    2,
    2,
    2,
    2,
    2,
    2,
    6,
    6,
    1,
    1,
    1,
    1,
    1,
    1,
    1,
    1,
    2,
    2,
    3,
    3,
    3,
    3,
    2,
    2,
    1,
    1,
    1,
    1,
    1,
    1,
    1,
    1,
    6,
    6,
    6,
    6,
    1,
    1,
    1,
    1,
    1,
    1,
    1,
    1,
    2,
    2,
    2,
    3,
    3,
    2,
    2,
    2,
    1,
    1,
    1,
    1,
    1,
    1,
    1,
    1,
    6,
    6,
    6,
    6,
    1,
    1,
    1,
    1,
    1,
    1,
    2,
    2,
    1,
    1,
    2,
    2,
    2,
    2,
    1,
    1,
    2,
    2,
    1,
    1,
    1,
    1,
    1,
    1,
    6,
    6,
    6,
    6,
    1,
    1,
    1,
    1,
    1,
    1,
    1,
    1,
    1,
    1,
    1,
    2,
    2,
    1,
    1,
    1,
    1,
    1,
    1,
    1,
    1,
    1,
    1,
    1,
    6,
    6,
    6,
    6,
    1,
    1,
    1,
    1,
    1,
    1,
    1,
    1,
    1,
    1,
    1,
    2,
    2,
    1,
    1,
    1,
    1,
    1,
    1,
    1,
    1,
    1,
    1,
    1,
    6,
    6,
    6,
    6,
    1,
    1,
    1,
    1,
    1,
    1,
    1,
    1,
    1,
    1,
    1,
    2,
    2,
    1,
    1,
    1,
    1,
    1,
    1,
    1,
    1,
    1,
    1,
    1,
    6,
    6,
    6,
    6,
    1,
    1,
    1,
    1,
    1,
    1,
    1,
    5,
    5,
    1,
    1,
    2,
    2,
    1,
    1,
    1,
    1,
    1,
    1,
    1,
    1,
    1,
    1,
    1,
    6,
    6,
    6,
    6,
    1,
    1,
    1,
    1,
    1,
    1,
    1,
    5,
    5,
    1,
    1,
    2,
    2,
    1,
    1,
    1,
    1,
    1,
    1,
    1,
    1,
    1,
    1,
    1,
    6,
    6,
    6,
    6,
    1,
    1,
    1,
    1,
    1,
    1,
    1,
    1,
    1,
    1,
    1,
    1,
    1,
    1,
    1,
    1,
    1,
    1,
    1,
    1,
    1,
    1,
    1,
    1,
    6,
    6,
    6,
    6,
    1,
    1,
    1,
    1,
    1,
    1,
    1,
    1,
    1,
    1,
    1,
    1,
    1,
    1,
    1,
    1,
    1,
    1,
    1,
    1,
    1,
    1,
    1,
    1,
    6,
    6,
    6,
    6,
    6,
    6,
    6,
    6,
    6,
    6,
    6,
    6,
    6,
    6,
    6,
    6,
    6,
    6,
    6,
    6,
    6,
    6,
    6,
    6,
    6,
    6,
    6,
    6,
    6,
    6,
    6,
    6,
    6,
    6,
    6,
    6,
    6,
    6,
    6,
    6,
    6,
    6,
    6,
    6,
    6,
    6,
    6,
    6,
    6,
    6,
    6,
    6,
    6,
    6,
    6,
    6,
    6,
    6
   ]
  },
  {
   "id": 2,
   "name": "bloqueio",
   "type": "tilelayer",
   "width": 28,
   "height": 28,
   "x": 0,
   "y": 0,
   "opacity": 0.5,
   "visible": true,
   "data": [
    0,
    0,
    0,
    0,
    0,
    0,
    0,
    0,
    0,
    0,
    0,
    0,
    0,
    0,
    0,
    0,
    0,
    0,
    0,
    0,
    0,
    0,
    0,
    0,
    0,
    0,
    0,
    0,
    0,
    0,
    0,
    0,
    0,
    0,
    0,
    0,
    0,
    0,
    0,
    0,
    0,
    0,
    0,
    0,
    0,
    0,
    0,
    0,
    0,
    0,
    0,
    0,
    0,
    0,
    0,
    0,
    0,
    0,
    0,
    0,
    0,
    0,
    0,
    0,
    0,
    0,
    0,
    0,
    0,
    0,
    0,
    0,
    0,
    0,
    0,
    0,
    0,
    0,
    0,
    0,
    0,
    0,
    0,
    0,
    0,
    0,
    0,
    0,
    0,
    0,
    0,
    0,
    0,
    0,
    0,
    0,
    0,
    0,
    0,
    0,
    0,
    0,
    0,
    0,
    0,
    0,
    0,
    0,
    0,
    0,
    0,
    0,
    0,
    0,
    0,
    0,
    0,
    0,
    0,
    0,
    0,
    0,
    0,
    0,
    0,
    0,
    0,
    0,
    0,
    0,
    0,
    0,
    0,
    0,
    0,
    0,
    0,
    0,
    0,
    0,
    0,
    0,
    0,
    0,
    0,
    0,
    0,
    0,
    0,
    0,
    0,
    0,
    0,
    0,
    0,
    0,
    0,
    0,
    0,
    0,
    0,
    0,
    0,
    0,
    0,
    0,
    0,
    0,
    0,
    0,
    0,
    0,
    0,
    0,
    0,
    0,
    0,
    0,
    0,
    0,
    0,
    0,
    0,
    0,
    0,
    0,
    0,
    0,
    0,
    0,
    0,
    0,
    0,
    0,
    0,
    0,
    0,
    0,
    0,
    0,
    0,
    0,
    0,
    0,
    0,
    0,
    0,
    0,
    0,
    0,
    0,
    0,
    0,
    0,
    0,
    0,
    0,
    0,
    0,
    0,
    0,
    0,
    0,
    0,
    0,
    0,
    0,
    0,
    0,
    0,
    0,
    0,
    0,
    0,
    0,
    0,
    0,
    0,
    0,
    0,
    0,
    0,
    0,
    0,
    0,
    0,
    0,
    0,
    0,
    0,
    0,
    0,
    0,
    0,
    0,
    0,
    0,
    0,
    0,
    0,
    0,
    0,
    0,
    0,
    0,
    0,
    0,
    0,
    0,
    0,
    0,
    0,
    0,
    0,
    0,
    0,
    0,
    0,
    0,
    0,
    0,
    0,
    0,
    0,
    0,
    0,
    0,
    0,
    0,
    0,
    0,
    0,
    0,
    0,
    0,
    0,
    0,
    0,
    0,
    0,
    0,
    0,
    0,
    0,
    0,
    0,
    0,
    0,
    0,
    0,
    0,
    0,
    0,
    0,
    0,
    0,
    0,
    0,
    0,
    0,
    0,
    0,
    0,
    0,
    0,
    0,
    0,
    0,
    0,
    0,
    0,
    0,
    0,
    0,
    0,
    0,
    0,
    0,
    0,
    0,
    0,
    0,
    0,
    0,
    0,
    0,
    0,
    0,
    0,
    0,
    0,
    0,
    0,
    0,
    0,
    0,
    0,
    0,
    0,
    0,
    0,
    0,
    0,
    0,
    0,
    0,
    0,
    0,
    0,
    0,
    0,
    0,
    0,
    0,
    0,
    0,
    0,
    0,
    0,
    0,
    0,
    0,
    0,
    0,
    0,
    0,
    0,
    0,
    0,
    0,
    0,
    0,
    0,
    0,
    0,
    0,
    0,
    0,
    0,
    0,
    0,
    0,
    0,
    0,
    0,
    0,
    0,
    0,
    0,
    0,
    0,
    0,
    0,
    0,
    0,
    0,
    0,
    0,
    0,
    0,
    0,
    0,
    0,
    0,
    0,
    0,
    0,
    0,
    0,
    0,
    0,
    0,
    0,
    0,
    0,
    0,
    0,
    0,
    0,
    0,
    0,
    0,
    0,
    0,
    0,
    0,
    0,
    0,
    0,
    0,
    0,
    0,
    0,
    0,
    0,
    0,
    0,
    0,
    0,
    0,
    0,
    0,
    0,
    0,
    0,
    0,
    0,
    0,
    0,
    0,
    0,
    0,
    0,
    0,
    0,
    0,
    0,
    0,
    0,
    0,
    0,
    0,
    0,
    0,
    0,
    0,
    0,
    0,
    0,
    0,
    0,
    0,
    0,
    0,
    0,
    0,
    0,
    0,
    0,
    0,
    0,
    0,
    0,
    0,
    0,
    0,
    0,
    0,
    0,
    0,
    0,
    0,
    0,
    0,
    0,
    0,
    0,
    0,
    0,
    0,
    0,
    0,
    0,
    0,
    0,
    0,
    0,
    0,
    0,
    0,
    0,
    0,
    0,
    0,
    0,
    0,
    0,
    0,
    0,
    0,
    0,
    0,
    0,
    0,
    0,
    0,
    0,
    0,
    0,
    0,
    0,
    0,
    0,
    0,
    0,
    0,
    0,
    0,
    0,
    0,
    0,
    0,
    0,
    0,
    0,
    0,
    0,
    0,
    0,
    0,
    0,
    0,
    0,
    0,
    0,
    0,
    0,
    0,
    0,
    0,
    0,
    0,
    0,
    0,
    0,
    0,
    0,
    0,
    0,
    0,
    0,
    0,
    0,
    0,
    0,
    0,
    0,
    0,
    0,
    0,
    0,
    0,
    0,
    0,
    0,
    0,
    0,
    0,
    0,
    0,
    0,
    0,
    0,
    0,
    0,
    0,
    0,
    0,
    0,
    0,
    0,
    0,
    0,
    0,
    0,
    0,
    0,
    0,
    0,
    0,
    0,
    0,
    0,
    0,
    0,
    0,
    0,
    0,
    0,
    0,
    0,
    0,
    0,
    0,
    0,
    0,
    0,
    0,
    0,
    0,
    0,
    0,
    0,
    0,
    0,
    0,
    0,
    0,
    0,
    0,
    0,
    0,
    0,
    0,
    0,
    0,
    0,
    0,
    0,
    0,
    0,
    0,
    0,
    0,
    0,
    0,
    0,
    0,
    0,
    0,
    0,
    0,
    0,
    0,
    0,
    0,
    0,
    0,
    0,
    0,
    0,
    0,
    0,
    0,
    0,
    0,
    0,
    0,
    0,
    0,
    0,
    0,
    0,
    0,
    0,
    0,
    0,
    0,
    0,
    0,
    0,
    0,
    0,
    0,
    0,
    0,
    0,
    0,
    0,
    0,
    0,
    0,
    0,
    0,
    0,
    0,
    0,
    0,
    0,
    0,
    0,
    0,
    0,
    0,
    0,
    0,
    0,
    0,
    0,
    0,
    0,
    0,
    0,
    0,
    0,
    0,
    0,
    0,
    0,
    0,
    0,
    0,
    0,
    0,
    0,
    0,
    0,
    0,
    0,
    0,
    0,
    0,
    0,
    0,
    0,
    0,
    0,
    0,
    0,
    0,
    0,
    0,
    0,
    0,
    0,
    0,
    0,
    0,
    0,
    0,
    0,
    0,
    0,
    0
   ]
  },
  {
   "id": 3,
   "name": "objetos",
   "type": "objectgroup",
   "draworder": "topdown",
   "x": 0,
   "y": 0,
   "opacity": 1,
   "visible": true,
   "objects": [
    {
     "id": 1,
     "name": "",
     "type": "prop",
     "x": 240.0,
     "y": 336.0,
     "width": 0,
     "height": 0,
     "rotation": 0,
     "visible": true,
     "point": true,
     "properties": [
      {
       "name": "modelo",
       "type": "string",
       "value": "tavern"
      }
     ]
    },
    {
     "id": 2,
     "name": "",
     "type": "prop",
     "x": 656.0,
     "y": 336.0,
     "width": 0,
     "height": 0,
     "rotation": 0,
     "visible": true,
     "point": true,
     "properties": [
      {
       "name": "modelo",
       "type": "string",
       "value": "blacksmith"
      }
     ]
    },
    {
     "id": 3,
     "name": "",
     "type": "prop",
     "x": 240.0,
     "y": 640.0,
     "width": 0,
     "height": 0,
     "rotation": 0,
     "visible": true,
     "point": true,
     "properties": [
      {
       "name": "modelo",
       "type": "string",
       "value": "market"
      }
     ]
    },
    {
     "id": 4,
     "name": "",
     "type": "prop",
     "x": 656.0,
     "y": 632.0,
     "width": 0,
     "height": 0,
     "rotation": 0,
     "visible": true,
     "point": true,
     "properties": [
      {
       "name": "modelo",
       "type": "string",
       "value": "home_A"
      },
      {
       "name": "rot",
       "type": "float",
       "value": -90
      }
     ]
    },
    {
     "id": 5,
     "name": "",
     "type": "prop",
     "x": 128.0,
     "y": 480.0,
     "width": 0,
     "height": 0,
     "rotation": 0,
     "visible": true,
     "point": true,
     "properties": [
      {
       "name": "modelo",
       "type": "string",
       "value": "home_B"
      },
      {
       "name": "rot",
       "type": "float",
       "value": 90
      }
     ]
    },
    {
     "id": 6,
     "name": "",
     "type": "prop",
     "x": 608.0,
     "y": 768.0,
     "width": 0,
     "height": 0,
     "rotation": 0,
     "visible": true,
     "point": true,
     "properties": [
      {
       "name": "modelo",
       "type": "string",
       "value": "grain"
      }
     ]
    },
    {
     "id": 7,
     "name": "",
     "type": "prop",
     "x": 531.2,
     "y": 563.2,
     "width": 0,
     "height": 0,
     "rotation": 0,
     "visible": true,
     "point": true,
     "properties": [
      {
       "name": "modelo",
       "type": "string",
       "value": "well"
      },
      {
       "name": "rot",
       "type": "float",
       "value": 30
      }
     ]
    },
    {
     "id": 8,
     "name": "",
     "type": "prop",
     "x": 144.0,
     "y": 56.0,
     "width": 0,
     "height": 0,
     "rotation": 0,
     "visible": true,
     "point": true,
     "properties": [
      {
       "name": "modelo",
       "type": "string",
       "value": "fence"
      }
     ]
    },
    {
     "id": 9,
     "name": "",
     "type": "prop",
     "x": 240.0,
     "y": 56.0,
     "width": 0,
     "height": 0,
     "rotation": 0,
     "visible": true,
     "point": true,
     "properties": [
      {
       "name": "modelo",
       "type": "string",
       "value": "fence"
      }
     ]
    },
    {
     "id": 10,
     "name": "",
     "type": "prop",
     "x": 656.0,
     "y": 56.0,
     "width": 0,
     "height": 0,
     "rotation": 0,
     "visible": true,
     "point": true,
     "properties": [
      {
       "name": "modelo",
       "type": "string",
       "value": "fence"
      }
     ]
    },
    {
     "id": 11,
     "name": "",
     "type": "prop",
     "x": 752.0,
     "y": 56.0,
     "width": 0,
     "height": 0,
     "rotation": 0,
     "visible": true,
     "point": true,
     "properties": [
      {
       "name": "modelo",
       "type": "string",
       "value": "fence"
      }
     ]
    },
    {
     "id": 12,
     "name": "",
     "type": "prop",
     "x": 392.0,
     "y": 704.0,
     "width": 0,
     "height": 0,
     "rotation": 0,
     "visible": true,
     "point": true,
     "properties": [
      {
       "name": "modelo",
       "type": "string",
       "value": "fence"
      },
      {
       "name": "rot",
       "type": "float",
       "value": 90
      }
     ]
    },
    {
     "id": 13,
     "name": "",
     "type": "prop",
     "x": 504.0,
     "y": 704.0,
     "width": 0,
     "height": 0,
     "rotation": 0,
     "visible": true,
     "point": true,
     "properties": [
      {
       "name": "modelo",
       "type": "string",
       "value": "fence"
      },
      {
       "name": "rot",
       "type": "float",
       "value": 90
      }
     ]
    },
    {
     "id": 14,
     "name": "",
     "type": "prop",
     "x": 312.0,
     "y": 376.0,
     "width": 0,
     "height": 0,
     "rotation": 0,
     "visible": true,
     "point": true,
     "properties": [
      {
       "name": "modelo",
       "type": "string",
       "value": "barrel"
      }
     ]
    },
    {
     "id": 15,
     "name": "",
     "type": "prop",
     "x": 160.0,
     "y": 392.0,
     "width": 0,
     "height": 0,
     "rotation": 0,
     "visible": true,
     "point": true,
     "properties": [
      {
       "name": "modelo",
       "type": "string",
       "value": "barrels"
      },
      {
       "name": "rot",
       "type": "float",
       "value": 20
      }
     ]
    },
    {
     "id": 16,
     "name": "",
     "type": "prop",
     "x": 179.2,
     "y": 406.4,
     "width": 0,
     "height": 0,
     "rotation": 0,
     "visible": true,
     "point": true,
     "properties": [
      {
       "name": "modelo",
       "type": "string",
       "value": "keg"
      }
     ]
    },
    {
     "id": 17,
     "name": "",
     "type": "prop",
     "x": 348.8,
     "y": 355.2,
     "width": 0,
     "height": 0,
     "rotation": 0,
     "visible": true,
     "point": true,
     "properties": [
      {
       "name": "modelo",
       "type": "string",
       "value": "table"
      },
      {
       "name": "rot",
       "type": "float",
       "value": 45
      }
     ]
    },
    {
     "id": 18,
     "name": "",
     "type": "prop",
     "x": 332.8,
     "y": 371.2,
     "width": 0,
     "height": 0,
     "rotation": 0,
     "visible": true,
     "point": true,
     "properties": [
      {
       "name": "modelo",
       "type": "string",
       "value": "stool"
      },
      {
       "name": "rot",
       "type": "float",
       "value": 10
      }
     ]
    },
    {
     "id": 19,
     "name": "",
     "type": "prop",
     "x": 364.8,
     "y": 339.2,
     "width": 0,
     "height": 0,
     "rotation": 0,
     "visible": true,
     "point": true,
     "properties": [
      {
       "name": "modelo",
       "type": "string",
       "value": "stool"
      },
      {
       "name": "rot",
       "type": "float",
       "value": 70
      }
     ]
    },
    {
     "id": 20,
     "name": "",
     "type": "prop",
     "x": 588.8,
     "y": 376.0,
     "width": 0,
     "height": 0,
     "rotation": 0,
     "visible": true,
     "point": true,
     "properties": [
      {
       "name": "modelo",
       "type": "string",
       "value": "weaponrack"
      }
     ]
    },
    {
     "id": 21,
     "name": "",
     "type": "prop",
     "x": 739.2,
     "y": 296.0,
     "width": 0,
     "height": 0,
     "rotation": 0,
     "visible": true,
     "point": true,
     "properties": [
      {
       "name": "modelo",
       "type": "string",
       "value": "crates"
      }
     ]
    },
    {
     "id": 22,
     "name": "",
     "type": "prop",
     "x": 740.8,
     "y": 396.8,
     "width": 0,
     "height": 0,
     "rotation": 0,
     "visible": true,
     "point": true,
     "properties": [
      {
       "name": "modelo",
       "type": "string",
       "value": "lumber"
      },
      {
       "name": "rot",
       "type": "float",
       "value": 90
      }
     ]
    },
    {
     "id": 23,
     "name": "",
     "type": "prop",
     "x": 600.0,
     "y": 412.8,
     "width": 0,
     "height": 0,
     "rotation": 0,
     "visible": true,
     "point": true,
     "properties": [
      {
       "name": "modelo",
       "type": "string",
       "value": "wheelbarrow"
      },
      {
       "name": "rot",
       "type": "float",
       "value": -30
      }
     ]
    },
    {
     "id": 24,
     "name": "",
     "type": "prop",
     "x": 316.8,
     "y": 627.2,
     "width": 0,
     "height": 0,
     "rotation": 0,
     "visible": true,
     "point": true,
     "properties": [
      {
       "name": "modelo",
       "type": "string",
       "value": "crate_big"
      },
      {
       "name": "rot",
       "type": "float",
       "value": 15
      }
     ]
    },
    {
     "id": 25,
     "name": "",
     "type": "prop",
     "x": 328.0,
     "y": 649.6,
     "width": 0,
     "height": 0,
     "rotation": 0,
     "visible": true,
     "point": true,
     "properties": [
      {
       "name": "modelo",
       "type": "string",
       "value": "crate_small"
      },
      {
       "name": "rot",
       "type": "float",
       "value": 40
      }
     ]
    },
    {
     "id": 26,
     "name": "",
     "type": "prop",
     "x": 150.4,
     "y": 624.0,
     "width": 0,
     "height": 0,
     "rotation": 0,
     "visible": true,
     "point": true,
     "properties": [
      {
       "name": "modelo",
       "type": "string",
       "value": "sack"
      }
     ]
    },
    {
     "id": 27,
     "name": "",
     "type": "prop",
     "x": 156.8,
     "y": 640.0,
     "width": 0,
     "height": 0,
     "rotation": 0,
     "visible": true,
     "point": true,
     "properties": [
      {
       "name": "modelo",
       "type": "string",
       "value": "sack"
      },
      {
       "name": "rot",
       "type": "float",
       "value": 60
      }
     ]
    },
    {
     "id": 28,
     "name": "",
     "type": "prop",
     "x": 728.0,
     "y": 568.0,
     "width": 0,
     "height": 0,
     "rotation": 0,
     "visible": true,
     "point": true,
     "properties": [
      {
       "name": "modelo",
       "type": "string",
       "value": "crate_open"
      }
     ]
    },
    {
     "id": 29,
     "name": "",
     "type": "prop",
     "x": 553.6,
     "y": 585.6,
     "width": 0,
     "height": 0,
     "rotation": 0,
     "visible": true,
     "point": true,
     "properties": [
      {
       "name": "modelo",
       "type": "string",
       "value": "bucket"
      }
     ]
    },
    {
     "id": 30,
     "name": "",
     "type": "prop",
     "x": 112.0,
     "y": 592.0,
     "width": 0,
     "height": 0,
     "rotation": 0,
     "visible": true,
     "point": true,
     "properties": [
      {
       "name": "modelo",
       "type": "string",
       "value": "tent"
      },
      {
       "name": "rot",
       "type": "float",
       "value": 90
      }
     ]
    },
    {
     "id": 31,
     "name": "",
     "type": "prop",
     "x": 732.8,
     "y": 696.0,
     "width": 0,
     "height": 0,
     "rotation": 0,
     "visible": true,
     "point": true,
     "properties": [
      {
       "name": "modelo",
       "type": "string",
       "value": "barrel"
      }
     ]
    },
    {
     "id": 32,
     "name": "",
     "type": "prop",
     "x": 400.0,
     "y": 616.0,
     "width": 0,
     "height": 0,
     "rotation": 0,
     "visible": true,
     "point": true,
     "properties": [
      {
       "name": "modelo",
       "type": "string",
       "value": "rock_A"
      },
      {
       "name": "rot",
       "type": "float",
       "value": 10
      }
     ]
    },
    {
     "id": 33,
     "name": "",
     "type": "prop",
     "x": 584.0,
     "y": 440.0,
     "width": 0,
     "height": 0,
     "rotation": 0,
     "visible": true,
     "point": true,
     "properties": [
      {
       "name": "modelo",
       "type": "string",
       "value": "rock_C"
      },
      {
       "name": "rot",
       "type": "float",
       "value": 80
      }
     ]
    },
    {
     "id": 34,
     "name": "",
     "type": "prop",
     "x": 296.0,
     "y": 296.0,
     "width": 0,
     "height": 0,
     "rotation": 0,
     "visible": true,
     "point": true,
     "properties": [
      {
       "name": "modelo",
       "type": "string",
       "value": "rock_B"
      },
      {
       "name": "rot",
       "type": "float",
       "value": 40
      }
     ]
    },
    {
     "id": 35,
     "name": "",
     "type": "prop",
     "x": 288.0,
     "y": 552.0,
     "width": 0,
     "height": 0,
     "rotation": 0,
     "visible": true,
     "point": true,
     "properties": [
      {
       "name": "modelo",
       "type": "string",
       "value": "rock_D"
      }
     ]
    },
    {
     "id": 36,
     "name": "",
     "type": "prop",
     "x": 696.0,
     "y": 508.8,
     "width": 0,
     "height": 0,
     "rotation": 0,
     "visible": true,
     "point": true,
     "properties": [
      {
       "name": "modelo",
       "type": "string",
       "value": "rock_A"
      },
      {
       "name": "rot",
       "type": "float",
       "value": 120
      }
     ]
    },
    {
     "id": 37,
     "name": "",
     "type": "prop",
     "x": 344.0,
     "y": 720.0,
     "width": 0,
     "height": 0,
     "rotation": 0,
     "visible": true,
     "point": true,
     "properties": [
      {
       "name": "modelo",
       "type": "string",
       "value": "rock_B"
      },
      {
       "name": "rot",
       "type": "float",
       "value": 30
      }
     ]
    },
    {
     "id": 38,
     "name": "",
     "type": "prop",
     "x": 280.0,
     "y": 768.0,
     "width": 0,
     "height": 0,
     "rotation": 0,
     "visible": true,
     "point": true,
     "properties": [
      {
       "name": "modelo",
       "type": "string",
       "value": "rock_C"
      },
      {
       "name": "rot",
       "type": "float",
       "value": 200
      }
     ]
    }
   ]
  },
  {
   "id": 4,
   "name": "entidades",
   "type": "objectgroup",
   "draworder": "topdown",
   "x": 0,
   "y": 0,
   "opacity": 1,
   "visible": true,
   "objects": [
    {
     "id": 39,
     "name": "inicio",
     "type": "spawn",
     "x": 472.0,
     "y": 528.0,
     "width": 0,
     "height": 0,
     "rotation": 0,
     "visible": true,
     "point": true
    },
    {
     "id": 40,
     "name": "retorno_floresta",
     "type": "spawn",
     "x": 352.0,
     "y": 232.0,
     "width": 0,
     "height": 0,
     "rotation": 0,
     "visible": true,
     "point": true
    },
    {
     "id": 41,
     "name": "retorno_caverna",
     "type": "spawn",
     "x": 448.0,
     "y": 224.0,
     "width": 0,
     "height": 0,
     "rotation": 0,
     "visible": true,
     "point": true
    },
    {
     "id": 42,
     "name": "",
     "type": "fogueira",
     "x": 448.0,
     "y": 480.0,
     "width": 0,
     "height": 0,
     "rotation": 0,
     "visible": true,
     "point": true
    },
    {
     "id": 43,
     "name": "portal_floresta",
     "type": "portal",
     "x": 352.0,
     "y": 160.0,
     "width": 0,
     "height": 0,
     "rotation": 0,
     "visible": true,
     "point": true,
     "properties": [
      {
       "name": "destino",
       "type": "string",
       "value": "floresta"
      },
      {
       "name": "chegada",
       "type": "string",
       "value": "inicio"
      },
      {
       "name": "rotulo",
       "type": "string",
       "value": "Floresta"
      },
      {
       "name": "cor",
       "type": "color",
       "value": "#ff5fd18a"
      }
     ]
    },
    {
     "id": 44,
     "name": "portal_caverna",
     "type": "portal",
     "x": 448.0,
     "y": 128.0,
     "width": 0,
     "height": 0,
     "rotation": 0,
     "visible": true,
     "point": true,
     "properties": [
      {
       "name": "destino",
       "type": "string",
       "value": "caverna"
      },
      {
       "name": "rotulo",
       "type": "string",
       "value": "Caverna"
      },
      {
       "name": "bloqueado",
       "type": "bool",
       "value": true
      },
      {
       "name": "cor",
       "type": "color",
       "value": "#ffe0503a"
      }
     ]
    },
    {
     "id": 45,
     "name": "portal_futuro",
     "type": "portal",
     "x": 544.0,
     "y": 160.0,
     "width": 0,
     "height": 0,
     "rotation": 0,
     "visible": true,
     "point": true,
     "properties": [
      {
       "name": "rotulo",
       "type": "string",
       "value": "Novo mundo"
      },
      {
       "name": "bloqueado",
       "type": "bool",
       "value": true
      },
      {
       "name": "cor",
       "type": "color",
       "value": "#ff7a8cff"
      }
     ]
    },
    {
     "id": 46,
     "name": "arena_aurelius",
     "type": "arena",
     "x": 856.0,
     "y": 480.0,
     "width": 0,
     "height": 0,
     "rotation": 0,
     "visible": true,
     "point": true,
     "properties": [
      {
       "name": "rotulo",
       "type": "string",
       "value": "Arena de Aurelius"
      },
      {
       "name": "bloqueado",
       "type": "bool",
       "value": true
      }
     ]
    },
    {
     "id": 47,
     "name": "",
     "type": "tocha",
     "x": 400.0,
     "y": 371.2,
     "width": 0,
     "height": 0,
     "rotation": 0,
     "visible": true,
     "point": true,
     "properties": [
      {
       "name": "luz",
       "type": "bool",
       "value": true
      }
     ]
    },
    {
     "id": 48,
     "name": "",
     "type": "tocha",
     "x": 496.0,
     "y": 371.2,
     "width": 0,
     "height": 0,
     "rotation": 0,
     "visible": true,
     "point": true,
     "properties": [
      {
       "name": "luz",
       "type": "bool",
       "value": true
      }
     ]
    },
    {
     "id": 49,
     "name": "",
     "type": "tocha",
     "x": 400.0,
     "y": 588.8,
     "width": 0,
     "height": 0,
     "rotation": 0,
     "visible": true,
     "point": true,
     "properties": [
      {
       "name": "luz",
       "type": "bool",
       "value": true
      }
     ]
    },
    {
     "id": 50,
     "name": "",
     "type": "tocha",
     "x": 556.8,
     "y": 464.0,
     "width": 0,
     "height": 0,
     "rotation": 0,
     "visible": true,
     "point": true,
     "properties": [
      {
       "name": "luz",
       "type": "bool",
       "value": true
      }
     ]
    },
    {
     "id": 51,
     "name": "",
     "type": "tocha",
     "x": 339.2,
     "y": 464.0,
     "width": 0,
     "height": 0,
     "rotation": 0,
     "visible": true,
     "point": true,
     "properties": [
      {
       "name": "luz",
       "type": "bool",
       "value": false
      }
     ]
    },
    {
     "id": 52,
     "name": "",
     "type": "tocha",
     "x": 294.4,
     "y": 323.2,
     "width": 0,
     "height": 0,
     "rotation": 0,
     "visible": true,
     "point": true,
     "properties": [
      {
       "name": "luz",
       "type": "bool",
       "value": false
      }
     ]
    },
    {
     "id": 53,
     "name": "",
     "type": "tocha",
     "x": 601.6,
     "y": 323.2,
     "width": 0,
     "height": 0,
     "rotation": 0,
     "visible": true,
     "point": true,
     "properties": [
      {
       "name": "luz",
       "type": "bool",
       "value": false
      }
     ]
    },
    {
     "id": 54,
     "name": "",
     "type": "tocha",
     "x": 784.0,
     "y": 451.2,
     "width": 0,
     "height": 0,
     "rotation": 0,
     "visible": true,
     "point": true,
     "properties": [
      {
       "name": "luz",
       "type": "bool",
       "value": false
      }
     ]
    },
    {
     "id": 55,
     "name": "",
     "type": "tocha",
     "x": 784.0,
     "y": 508.8,
     "width": 0,
     "height": 0,
     "rotation": 0,
     "visible": true,
     "point": true,
     "properties": [
      {
       "name": "luz",
       "type": "bool",
       "value": false
      }
     ]
    },
    {
     "id": 56,
     "name": "",
     "type": "lampiao",
     "x": 288.0,
     "y": 256.0,
     "width": 0,
     "height": 0,
     "rotation": 0,
     "visible": true,
     "point": true,
     "properties": [
      {
       "name": "luz",
       "type": "bool",
       "value": false
      }
     ]
    },
    {
     "id": 57,
     "name": "",
     "type": "lampiao",
     "x": 608.0,
     "y": 256.0,
     "width": 0,
     "height": 0,
     "rotation": 0,
     "visible": true,
     "point": true,
     "properties": [
      {
       "name": "luz",
       "type": "bool",
       "value": false
      }
     ]
    },
    {
     "id": 58,
     "name": "",
     "type": "lampiao",
     "x": 288.0,
     "y": 96.0,
     "width": 0,
     "height": 0,
     "rotation": 0,
     "visible": true,
     "point": true,
     "properties": [
      {
       "name": "luz",
       "type": "bool",
       "value": false
      }
     ]
    },
    {
     "id": 59,
     "name": "",
     "type": "lampiao",
     "x": 608.0,
     "y": 96.0,
     "width": 0,
     "height": 0,
     "rotation": 0,
     "visible": true,
     "point": true,
     "properties": [
      {
       "name": "luz",
       "type": "bool",
       "value": false
      }
     ]
    },
    {
     "id": 60,
     "name": "",
     "type": "lampiao",
     "x": 412.8,
     "y": 268.8,
     "width": 0,
     "height": 0,
     "rotation": 0,
     "visible": true,
     "point": true,
     "properties": [
      {
       "name": "luz",
       "type": "bool",
       "value": true
      }
     ]
    },
    {
     "id": 61,
     "name": "",
     "type": "lampiao",
     "x": 483.2,
     "y": 268.8,
     "width": 0,
     "height": 0,
     "rotation": 0,
     "visible": true,
     "point": true,
     "properties": [
      {
       "name": "luz",
       "type": "bool",
       "value": true
      }
     ]
    }
   ]
  }
 ]
}