{
 "type": "map",
 "version": "1.10",
 "tiledversion": "1.11.0",
 "orientation": "orthogonal",
 "renderorder": "right-down",
 "width": 30,
 "height": 30,
 "tilewidth": 32,
 "tileheight": 32,
 "infinite": false,
 "nextlayerid": 5,
 "nextobjectid": 26,
 "compressionlevel": -1,
 "properties": [
  {
   "name": "nome",
   "type": "string",
   "value": "Floresta"
  },
  {
   "name": "ambiente",
   "type": "string",
   "value": "floresta"
  },
  {
   "name": "floresta_externa",
   "type": "bool",
   "value": true
  },
  {
   "name": "semente",
   "type": "int",
   "value": 23
  }
 ],
 "tilesets": [
  {
   "firstgid": 1,
   "source": "tilesets/terreno.tsj"
  }
 ],
 "layers": [
  {
   "id": 1,
   "name": "terreno",
   "type": "tilelayer",
   "width": 30,
   "height": 30,
   "x": 0,
   "y": 0,
   "opacity": 1,
   "visible": true,
   "data": [
    6,
    6,
    6,
    6,
    6,
    6,
    6,
    6,
    6,
    6,
    6,
    6,
    6,
    6,
    6,
    6,
    6,
    6,
    6,
    6,
    6,
    6,
    6,
    6,
    6,
    6,
    6,
    6,
    6,
    6,
    6,
    6,
    6,
    6,
    6,
    6,
    6,
    6,
    6,
    6,
    6,
    6,
    6,
    6,
    1,
    1,
    6,
    6,
    6,
    6,
    6,
    6,
    6,
    6,
    6,
    6,
    6,
    6,
    6,
    6,
    6,
    6,
    6,
    6,
    6,
    6,
    6,
    6,
    6,
    6,
    6,
    6,
    1,
    1,
    1,
    1,
    1,
    1,
    6,
    6,
    6,
    6,
    6,
    6,
    6,
    6,
    6,
    6,
    6,
    6,
    6,
    6,
    6,
    8,
    8,
    8,
    8,
    8,
    8,
    8,
    8,
    8,
    1,
    1,
    3,
    3,
    1,
    1,
    8,
    8,
    8,
    8,
    8,
    6,
    6,
    6,
    6,
    6,
    6,
    6,
    6,
    6,
    6,
    8,
    6,
    6,
    6,
    6,
    8,
    8,
    8,
    1,
    1,
    3,
    3,
    3,
    3,
    1,
    1,
    8,
    8,
    8,
    8,
    6,
    6,
    6,
    6,
    6,
    6,
    6,
    6,
    6,
    6,
    6,
    6,
    6,
    6,
    6,
    6,
    8,
    8,
    1,
    1,
    3,
    3,
    3,
    3,
    1,
    1,
    8,
    8,
    8,
    8,
    6,
    6,
    6,
    6,
    6,
    6,
    6,
    6,
    6,
    6,
    6,
    6,
    6,
    6,
    6,
    6,
    8,
    8,
    8,
    1,
    1,
    3,
    3,
    2,
    2,
    8,
    8,
    8,
    8,
    8,
    6,
    6,
    6,
    6,
    6,
    6,
    6,
    6,
    6,
    6,
    6,
    6,
    6,
    6,
    6,
    6,
    8,
    8,
    8,
    1,
    1,
    1,
    1,
    2,
    2,
    8,
    8,
    8,
    8,
    8,
    8,
    8,
    8,
    8,
    6,
    6,
    6,
    6,
    6,
    6,
    6,
    6,
    6,
    6,
    6,
    6,
    8,
    8,
    8,
    8,
    8,
    1,
    1,
    8,
    2,
    2,
    8,
    8,
    8,
    8,
    8,
    8,
    8,
    8,
    6,
    6,
    6,
    6,
    6,
    6,
    8,
    6,
    6,
    6,
    6,
    8,
    8,
    8,
    8,
    5,
    5,
    5,
    5,
    8,
    2,
    2,
    1,
    1,
    1,
    1,
    1,
    1,
    8,
    8,
    5,
    5,
    5,
    5,
    5,
    5,
    5,
    5,
    5,
    5,
    5,
    5,
    5,
    5,
    5,
    5,
    5,
    5,
    5,
    5,
    5,
    5,
    5,
    5,
    5,
    5,
    5,
    5,
    5,
    5,
    5,
    5,
    5,
    6,
    6,
    6,
    8,
    5,
    5,
    5,
    5,
    5,
    5,
    5,
    8,
    8,
    8,
    8,
    8,
    2,
    5,
    5,
    5,
    5,
    5,
    1,
    1,
    1,
    1,
    8,
    6,
    6,
    6,
    6,
    6,
    6,
    6,
    6,
    8,
    8,
    8,
    8,
    8,
    8,
    8,
    8,
    8,
    8,
    8,
    2,
    2,
    2,
    2,
    2,
    1,
    1,
    1,
    1,
    1,
    8,
    6,
    6,
    6,
    6,
    6,
    6,
    6,
    6,
    6,
    8,
    8,
    8,
    8,
    8,
    8,
    8,
    8,
    8,
    2,
    2,
    2,
    2,
    1,
    1,
    1,
    1,
    1,
    1,
    1,
    8,
    6,
    6,
    6,
    6,
    6,
    6,
    6,
    6,
    6,
    1,
    1,
    1,
    1,
    8,
    8,
    8,
    8,
    2,
    2,
    2,
    8,
    8,
    1,
    1,
    1,
    1,
    1,
    1,
    8,
    6,
    6,
    6,
    6,
    6,
    6,
    6,
    6,
    6,
    1,
    1,
    1,
    1,
    1,
    1,
    8,
    8,
    2,
    2,
    2,
    8,
    8,
    8,
    1,
    1,
    1,
    1,
    1,
    1,
    6,
    6,
    6,
    6,
    6,
    6,
    6,
    6,
    8,
    1,
    1,
    1,
    1,
    1,
    1,
    1,
    1,
    2,
    2,
    8,
    8,
    8,
    8,
    8,
    8,
    6,
    6,
    8,
    8,
    8,
    6,
    6,
    6,
    6,
    6,
    6,
    6,
    6,
    8,
    1,
    1,
    1,
    1,
    1,
    2,
    2,
    1,
    2,
    2,
    8,
    8,
    8,
    8,
    8,
    8,
    6,
    6,
    8,
    8,
    8,
    8,
    6,
    6,
    6,
    6,
    6,
    6,
    6,
    8,
    1,
    1,
    1,
    1,
    1,
    2,
    2,
    2,
    2,
    2,
    8,
    8,
    8,
    8,
    8,
    8,
    8,
    8,
    8,
    8,
    8,
    8,
    8,
    6,
    6,
    6,
    6,
    6,
    6,
    8,
    8,
    1,
    1,
    1,
    1,
    1,
    1,
    6,
    2,
    2,
    8,
    8,
    8,
    8,
    8,
    8,
    8,
    8,
    6,
    6,
    6,
    8,
    8,
    6,
    6,
    6,
    6,
    6,
    6,
    8,
    8,
    8,
    1,
    1,
    1,
    1,
    6,
    6,
    2,
    2,
    2,
    8,
    8,
    8,
    8,
    8,
    8,
    6,
    6,
    6,
    6,
    6,
    8,
    6,
    6,
    6,
    6,
    6,
    6,
    8,
    8,
    8,
    8,
    8,
    8,
    6,
    6,
    6,
    6,
    2,
    2,
    2,
    1,
    8,
    8,
    8,
    8,
    6,
    6,
    6,
    6,
    6,
    8,
    6,
    6,
    6,
    6,
    6,
    6,
    8,
    8,
    1,
    1,
    1,
    1,
    8,
    6,
    6,
    1,
    1,
    2,
    2,
    1,
    1,
    8,
    8,
    8,
    6,
    6,
    6,
    6,
    6,
    8,
    6,
    6,
    6,
    6,
    6,
    6,
    8,
    8,
    1,
    1,
    1,
    1,
    8,
    8,
    2,
    2,
    2,
    2,
    2,
    1,
    1,
    8,
    8,
    8,
    6,
    6,
    6,
    6,
    6,
    8,
    6,
    6,
    6,
    6,
    6,
    6,
    8,
    1,
    1,
    1,
    1,
    2,
    2,
    2,
    2,
    1,
    1,
    2,
    2,
    1,
    1,
    1,
    8,
    8,
    8,
    6,
    6,
    6,
    8,
    8,
    6,
    6,
    6,
    6,
    6,
    6,
    8,
    8,
    1,
    1,
    1,
    1,
    8,
    8,
    8,
    1,
    1,
    2,
    2,
    1,
    1,
    8,
    8,
    8,
    8,
    8,
    8,
    8,
    8,
    8,
    6,
    6,
    6,
    6,
    6,
    6,
    8,
    8,
    1,
    1,
    1,
    1,
    8,
    8,
    8,
    1,
    1,
    2,
    2,
    1,
    1,
    8,
    8,
    8,
    8,
    8,
    8,
    8,
    8,
    8,
    6,
    6,
    6,
    6,
    6,
    6,
    6,
    6,
    6,
    6,
    6,
    6,
    6,
    6,
    6,
    6,
    1,
    1,
    1,
    1,
    6,
    6,
    6,
    6,
    6,
    6,
    6,
    6,
    6,
    6,
    6,
    6,
    6,
    6,
    6,
    6,
    6,
    6,
    6,
    6,
    6,
    6,
    6,
    6,
    6,
    6,
    6,
    6,
    6,
    6,
    6,
    6,
    6,
    6,
    6,
    6,
    6,
    6,
    6,
    6,
    6,
    6,
    6,
    6,
    6,
    6,
    6,
    6,
    6,
    6,
    6,
    6,
    6,
    6,
    6,
    6,
    6,
    6,
    6,
    6,
    6,
    6,
    6,
    6,
    6,
    6,
    6,
    6,
    6,
    6,
    6,
    6,
    6
   ]
  },
  {
   "id": 2,
   "name": "bloqueio",
   "type": "tilelayer",
   "width": 30,
   "height": 30,
   "x": 0,
   "y": 0,
   "opacity": 0.5,
   "visible": true,
   "data": [
    0,
    0,
    0,
    0,
    0,
    0,
    0,
    0,
    0,
    0,
    0,
    0,
    0,
    0,
    0,
    0,
    0,
    0,
    0,
    0,
    0,
    0,
    0,
    0,
    0,
    0,
    0,
    0,
    0,
    0,
    0,
    0,
    0,
    0,
    0,
    0,
    0,
    0,
    0,
    0,
    0,
    0,
    0,
    0,
    0,
    0,
    0,
    0,
    0,
    0,
    0,
    0,
    0,
    0,
    0,
    0,
    0,
    0,
    0,
    0,
    0,
    0,
    0,
    0,
    0,
    0,
    0,
    0,
    0,
    0,
    0,
    0,
    0,
    0,
    0,
    0,
    0,
    0,
    0,
    0,
    0,
    0,
    0,
    0,
    0,
    0,
    0,
    0,
    0,
    0,
    0,
    0,
    0,
    0,
    0,
    0,
    0,
    0,
    0,
    0,
    0,
    0,
    0,
    0,
    0,
    0,
    0,
    0,
    0,
    0,
    0,
    0,
    0,
    0,
    0,
    0,
    0,
    0,
    0,
    0,
    0,
    0,
    0,
    0,
    0,
    0,
    0,
    0,
    0,
    0,
    0,
    0,
    0,
    0,
    0,
    0,
    0,
    0,
    0,
    0,
    0,
    0,
    0,
    0,
    0,
    0,
    0,
    0,
    0,
    0,
    0,
    0,
    0,
    0,
    0,
    0,
    0,
    0,
    0,
    0,
    0,
    0,
    0,
    0,
    0,
    0,
    0,
    0,
    0,
    0,
    0,
    0,
    0,
    0,
    0,
    0,
    0,
    0,
    0,
    0,
    0,
    0,
    0,
    0,
    0,
    0,
    0,
    0,
    0,
    0,
    0,
    0,
    0,
    0,
    0,
    0,
    0,
    0,
    0,
    0,
    0,
    0,
    0,
    0,
    0,
    0,
    0,
    0,
    0,
    0,
    0,
    0,
    0,
    0,
    0,
    0,
    0,
    0,
    0,
    0,
    0,
    0,
    0,
    0,
    0,
    0,
    0,
    0,
    0,
    0,
    0,
    0,
    0,
    0,
    0,
    0,
    0,
    0,
    0,
    0,
    0,
    0,
    0,
    0,
    0,
    0,
    0,
    0,
    0,
    0,
    0,
    0,
    0,
    0,
    0,
    0,
    0,
    0,
    0,
    0,
    0,
    0,
    0,
    0,
    0,
    0,
    0,
    0,
    0,
    0,
    0,
    0,
    0,
    0,
    0,
    0,
    0,
    0,
    0,
    0,
    0,
    0,
    0,
    0,
    0,
    0,
    0,
    0,
    0,
    0,
    0,
    0,
    0,
    0,
    0,
    0,
    0,
    0,
    0,
    0,
    0,
    0,
    0,
    0,
    0,
    0,
    0,
    0,
    0,
    0,
    0,
    0,
    0,
    0,
    0,
    0,
    0,
    0,
    0,
    0,
    0,
    0,
    0,
    0,
    0,
    0,
    0,
    0,
    0,
    0,
    0,
    0,
    0,
    0,
    0,
    0,
    0,
    0,
    0,
    0,
    0,
    0,
    0,
    0,
    0,
    0,
    0,
    0,
    0,
    0,
    0,
    0,
    0,
    0,
    0,
    0,
    0,
    0,
    0,
    0,
    0,
    0,
    0,
    0,
    0,
    0,
    0,
    0,
    0,
    0,
    0,
    0,
    0,
    0,
    0,
    0,
    0,
    0,
    0,
    0,
    0,
    0,
    0,
    0,
    0,
    0,
    0,
    0,
    0,
    0,
    0,
    0,
    0,
    0,
    0,
    0,
    0,
    0,
    0,
    0,
    0,
    0,
    0,
    0,
    0,
    0,
    0,
    0,
    0,
    0,
    0,
    0,
    0,
    0,
    0,
    0,
    0,
    0,
    0,
    0,
    0,
    0,
    0,
    0,
    0,
    0,
    0,
    0,
    0,
    0,
    0,
    0,
    0,
    0,
    0,
    0,
    0,
    0,
    0,
    0,
    0,
    0,
    0,
    0,
    0,
    0,
    0,
    0,
    0,
    0,
    0,
    0,
    0,
    0,
    0,
    0,
    0,
    0,
    0,
    0,
    0,
    0,
    0,
    0,
    0,
    0,
    0,
    0,
    0,
    0,
    0,
    0,
    0,
    0,
    0,
    0,
    0,
    0,
    0,
    0,
    0,
    0,
    0,
    0,
    0,
    0,
    0,
    0,
    0,
    0,
    0,
    0,
    0,
    0,
    0,
    0,
    0,
    0,
    0,
    0,
    0,
    0,
    0,
    0,
    0,
    0,
    0,
    0,
    0,
    0,
    0,
    0,
    0,
    0,
    0,
    0,
    0,
    0,
    0,
    0,
    0,
    0,
    0,
    0,
    0,
    0,
    0,
    0,
    0,
    0,
    0,
    0,
    0,
    0,
    0,
    0,
    0,
    0,
    0,
    0,
    0,
    0,
    0,
    0,
    0,
    0,
    0,
    0,
    0,
    0,
    0,
    0,
    0,
    0,
    0,
    0,
    0,
    0,
    0,
    0,
    0,
    0,
    0,
    0,
    0,
    0,
    0,
    0,
    0,
    0,
    0,
    0,
    0,
    0,
    0,
    0,
    0,
    0,
    0,
    0,
    0,
    0,
    0,
    0,
    0,
    0,
    0,
    0,
    0,
    0,
    0,
    0,
    0,
    0,
    0,
    0,
    0,
    0,
    0,
    0,
    0,
    0,
    0,
    0,
    0,
    0,
    0,
    0,
    0,
    0,
    0,
    0,
    0,
    0,
    0,
    0,
    0,
    0,
    0,
    0,
    0,
    0,
    0,
    0,
    0,
    0,
    0,
    0,
    0,
    0,
    0,
    0,
    0,
    0,
    0,
    0,
    0,
    0,
    0,
    0,
    0,
    0,
    0,
    0,
    0,
    0,
    0,
    0,
    0,
    0,
    0,
    0,
    0,
    0,
    0,
    0,
    0,
    0,
    0,
    0,
    0,
    0,
    0,
    0,
    0,
    0,
    0,
    0,
    0,
    0,
    0,
    0,
    0,
    0,
    0,
    0,
    0,
    0,
    0,
    0,
    0,
    0,
    0,
    0,
    0,
    0,
    0,
    0,
    0,
    0,
    0,
    0,
    0,
    0,
    0,
    0,
    0,
    0,
    0,
    0,
    0,
    0,
    0,
    0,
    0,
    0,
    0,
    0,
    0,
    0,
    0,
    0,
    0,
    0,
    0,
    0,
    0,
    0,
    0,
    0,
    0,
    0,
    0,
    0,
    0,
    0,
    0,
    0,
    0,
    0,
    0,
    0,
    0,
    0,
    0,
    0,
    0,
    0,
    0,
    0,
    0,
    0,
    0,
    0,
    0,
    0,
    0,
    0,
    0,
    0,
    0,
    0,
    0,
    0,
    0,
    0,
    0,
    0,
    0,
    0,
    0,
    0,
    0,
    0,
    0,
    0,
    0,
    0,
    0,
    0,
    0,
    0,
    0,
    0,
    0,
    0,
    0,
    0,
    0,
    0,
    0,
    0,
    0,
    0,
    0,
    0,
    0,
    0,
    0,
    0,
    0,
    0,
    0,
    0,
    0,
    0,
    0,
    0,
    0,
    0,
    0,
    0,
    0,
    0,
    0,
    0,
    0,
    0,
    0,
    0,
    0,
    0,
    0,
    0,
    0,
    0,
    0,
    0,
    0,
    0,
    0,
    0,
    0,
    0,
    0,
    0,
    0,
    0,
    0,
    0,
    0,
    0,
    0,
    0,
    0,
    0,
    0,
    0,
    0,
    0,
    0,
    0,
    0,
    0,
    0,
    0,
    0,
    0,
    0,
    0,
    0,
    0,
    0,
    0,
    0,
    0,
    0,
    0,
    0,
    0,
    0,
    0,
    0,
    0,
    0,
    0,
    0,
    0,
    0,
    0,
    0,
    0,
    0,
    0,
    0,
    0,
    0,
    0,
    0,
    0,
    0,
    0,
    0,
    0,
    0,
    0,
    0,
    0,
    0,
    0,
    0,
    0,
    0,
    0,
    0,
    0,
    0,
    0,
    0,
    0
   ]
  },
  {
   "id": 3,
   "name": "objetos",
   "type": "objectgroup",
   "draworder": "topdown",
   "x": 0,
   "y": 0,
   "opacity": 1,
   "visible": true,
   "objects": [
    {
     "id": 1,
     "name": "",
     "type": "prop",
     "x": 200.0,
     "y": 768.0,
     "width": 0,
     "height": 0,
     "rotation": 0,
     "visible": true,
     "point": true,
     "properties": [
      {
       "name": "modelo",
       "type": "string",
       "value": "tent"
      },
      {
       "name": "rot",
       "type": "float",
       "value": 90
      }
     ]
    },
    {
     "id": 2,
     "name": "",
     "type": "prop",
     "x": 252.8,
     "y": 812.8,
     "width": 0,
     "height": 0,
     "rotation": 0,
     "visible": true,
     "point": true,
     "properties": [
      {
       "name": "modelo",
       "type": "string",
       "value": "crate_open"
      }
     ]
    },
    {
     "id": 3,
     "name": "",
     "type": "prop",
     "x": 259.2,
     "y": 755.2,
     "width": 0,
     "height": 0,
     "rotation": 0,
     "visible": true,
     "point": true,
     "properties": [
      {
       "name": "modelo",
       "type": "string",
       "value": "barrel"
      }
     ]
    },
    {
     "id": 4,
     "name": "",
     "type": "prop",
     "x": 176.0,
     "y": 824.0,
     "width": 0,
     "height": 0,
     "rotation": 0,
     "visible": true,
     "point": true,
     "properties": [
      {
       "name": "modelo",
       "type": "string",
       "value": "lumber"
      },
      {
       "name": "rot",
       "type": "float",
       "value": 30
      }
     ]
    },
    {
     "id": 6,
     "name": "",
     "type": "prop",
     "x": 520.0,
     "y": 200.0,
     "width": 0,
     "height": 0,
     "rotation": 0,
     "visible": true,
     "point": true,
     "properties": [
      {
       "name": "modelo",
       "type": "string",
       "value": "rock_A"
      }
     ]
    },
    {
     "id": 7,
     "name": "",
     "type": "prop",
     "x": 432.0,
     "y": 192.0,
     "width": 0,
     "height": 0,
     "rotation": 0,
     "visible": true,
     "point": true,
     "properties": [
      {
       "name": "modelo",
       "type": "string",
       "value": "rock_B"
      },
      {
       "name": "rot",
       "type": "float",
       "value": 40
      }
     ]
    },
    {
     "id": 8,
     "name": "",
     "type": "prop",
     "x": 531.2,
     "y": 120.0,
     "width": 0,
     "height": 0,
     "rotation": 0,
     "visible": true,
     "point": true,
     "properties": [
      {
       "name": "modelo",
       "type": "string",
       "value": "rock_C"
      },
      {
       "name": "rot",
       "type": "float",
       "value": 90
      }
     ]
    },
    {
     "id": 9,
     "name": "",
     "type": "prop",
     "x": 441.6,
     "y": 112.0,
     "width": 0,
     "height": 0,
     "rotation": 0,
     "visible": true,
     "point": true,
     "properties": [
      {
       "name": "modelo",
       "type": "string",
       "value": "rock_D"
      },
      {
       "name": "rot",
       "type": "float",
       "value": 10
      }
     ]
    },
    {
     "id": 10,
     "name": "",
     "type": "prop",
     "x": 392.0,
     "y": 160.0,
     "width": 0,
     "height": 0,
     "rotation": 0,
     "visible": true,
     "point": true,
     "properties": [
      {
       "name": "modelo",
       "type": "string",
       "value": "rock_A"
      },
      {
       "name": "rot",
       "type": "float",
       "value": 200
      }
     ]
    },
    {
     "id": 11,
     "name": "",
     "type": "prop",
     "x": 572.8,
     "y": 176.0,
     "width": 0,
     "height": 0,
     "rotation": 0,
     "visible": true,
     "point": true,
     "properties": [
      {
       "name": "modelo",
       "type": "string",
       "value": "rock_C"
      },
      {
       "name": "rot",
       "type": "float",
       "value": 150
      }
     ]
    },
    {
     "id": 12,
     "name": "",
     "type": "prop",
     "x": 672.0,
     "y": 448.0,
     "width": 0,
     "height": 0,
     "rotation": 0,
     "visible": true,
     "point": true,
     "properties": [
      {
       "name": "modelo",
       "type": "string",
       "value": "rock_B"
      },
      {
       "name": "rot",
       "type": "float",
       "value": 20
      }
     ]
    },
    {
     "id": 13,
     "name": "",
     "type": "prop",
     "x": 760.0,
     "y": 368.0,
     "width": 0,
     "height": 0,
     "rotation": 0,
     "visible": true,
     "point": true,
     "properties": [
      {
       "name": "modelo",
       "type": "string",
       "value": "rock_D"
      },
      {
       "name": "rot",
       "type": "float",
       "value": 70
      }
     ]
    },
    {
     "id": 14,
     "name": "",
     "type": "prop",
     "x": 208.0,
     "y": 528.0,
     "width": 0,
     "height": 0,
     "rotation": 0,
     "visible": true,
     "point": true,
     "properties": [
      {
       "name": "modelo",
       "type": "string",
       "value": "rock_A"
      }
     ]
    },
    {
     "id": 15,
     "name": "",
     "type": "prop",
     "x": 288.0,
     "y": 624.0,
     "width": 0,
     "height": 0,
     "rotation": 0,
     "visible": true,
     "point": true,
     "properties": [
      {
       "name": "modelo",
       "type": "string",
       "value": "rock_C"
      },
      {
       "name": "rot",
       "type": "float",
       "value": 30
      }
     ]
    },
    {
     "id": 16,
     "name": "",
     "type": "prop",
     "x": 544.0,
     "y": 800.0,
     "width": 0,
     "height": 0,
     "rotation": 0,
     "visible": true,
     "point": true,
     "properties": [
      {
       "name": "modelo",
       "type": "string",
       "value": "rock_B"
      },
      {
       "name": "rot",
       "type": "float",
       "value": 60
      }
     ]
    }
   ]
  },
  {
   "id": 4,
   "name": "entidades",
   "type": "objectgroup",
   "draworder": "topdown",
   "x": 0,
   "y": 0,
   "opacity": 1,
   "visible": true,
   "objects": [
    {
     "id": 5,
     "name": "",
     "type": "fogueira_apagada",
     "x": 232.0,
     "y": 800.0,
     "width": 0,
     "height": 0,
     "rotation": 0,
     "visible": true,
     "point": true
    },
    {
     "id": 17,
     "name": "inicio",
     "type": "spawn",
     "x": 480.0,
     "y": 752.0,
     "width": 0,
     "height": 0,
     "rotation": 0,
     "visible": true,
     "point": true
    },
    {
     "id": 18,
     "name": "portal_aldeia",
     "type": "portal",
     "x": 480.0,
     "y": 824.0,
     "width": 0,
     "height": 0,
     "rotation": 0,
     "visible": true,
     "point": true,
     "properties": [
      {
       "name": "destino",
       "type": "string",
       "value": "aldeia"
      },
      {
       "name": "chegada",
       "type": "string",
       "value": "retorno_floresta"
      },
      {
       "name": "rotulo",
       "type": "string",
       "value": "Aldeia"
      },
      {
       "name": "cor",
       "type": "color",
       "value": "#ffe0a04a"
      }
     ]
    },
    {
     "id": 19,
     "name": "ponte_riacho",
     "type": "ponte",
     "x": 547.2,
     "y": 304.0,
     "width": 57.6,
     "height": 96.0,
     "rotation": 0,
     "visible": true
    },
    {
     "id": 20,
     "name": "clareira_oeste",
     "type": "area",
     "x": 144.0,
     "y": 448.0,
     "width": 224.0,
     "height": 224.0,
     "rotation": 0,
     "visible": true
    },
    {
     "id": 21,
     "name": "clareira_leste",
     "type": "area",
     "x": 576.0,
     "y": 272.0,
     "width": 256.0,
     "height": 256.0,
     "rotation": 0,
     "visible": true
    },
    {
     "id": 22,
     "name": "ruinas_norte",
     "type": "area",
     "x": 360.0,
     "y": 48.0,
     "width": 240.0,
     "height": 224.0,
     "rotation": 0,
     "visible": true
    },
    {
     "id": 23,
     "name": "acampamento",
     "type": "area",
     "x": 144.0,
     "y": 704.0,
     "width": 160.0,
     "height": 160.0,
     "rotation": 0,
     "visible": true
    },
    {
     "id": 24,
     "name": "",
     "type": "tocha",
     "x": 432.0,
     "y": 800.0,
     "width": 0,
     "height": 0,
     "rotation": 0,
     "visible": true,
     "point": true,
     "properties": [
      {
       "name": "luz",
       "type": "bool",
       "value": true
      }
     ]
    },
    {
     "id": 25,
     "name": "",
     "type": "tocha",
     "x": 528.0,
     "y": 800.0,
     "width": 0,
     "height": 0,
     "rotation": 0,
     "visible": true,
     "point": true,
     "properties": [
      {
       "name": "luz",
       "type": "bool",
       "value": true
      }
     ]
    }
   ]
  }
 ]
}